X:1
T:Hey Robin, Jolly Robin
M:2/4
L:1/8
K:F
 c2 AF| cc AF| GA Bc| dB G2| c2 AF| cc AF| GA Bc| AF F2|
